assets/images/next-icon.svg

<svg viewBox="0 0 31 30.24" xmlns="http://www.w3.org/2000/svg"><path d="m13.26 2.46 1.48-1.46a1.6 1.6 0 0 1 2.26 0l13 13a1.6 1.6 0 0 1 0 2.27l-13 13a1.6 1.6 0 0 1 -2.27 0l-1.48-1.49a1.61 1.61 0 0 1 0-2.3l8.07-7.68h-19.21a1.61 1.61 0 0 1 -1.61-1.61v-2.14a1.61 1.61 0 0 1 1.61-1.61h19.24l-8.07-7.68a1.6 1.6 0 0 1 -.02-2.3z" fill="#303030" stroke="#f9f9f9" stroke-miterlimit="10"/></svg>

<svg id="Livello_1" data-name="Livello 1" xmlns="http://www.w3.org/2000/svg" viewBox="0 0 31 30.24"><defs><style>.cls-1{fill:#303030;stroke:#f9f9f9;stroke-miterlimit:10;}</style></defs><path class="cls-1" d="M13.26,2.46,14.74,1A1.6,1.6,0,0,1,17,1L30,14a1.6,1.6,0,0,1,0,2.27l-13,13a1.6,1.6,0,0,1-2.27,0l-1.48-1.49a1.61,1.61,0,0,1,0-2.3l8.07-7.68H2.11A1.61,1.61,0,0,1,.5,16.19V14.05a1.61,1.61,0,0,1,1.61-1.61H21.35L13.28,4.76A1.6,1.6,0,0,1,13.26,2.46Z"/></svg>
